src/assets/icons/lightbulb.svg

<svg width="14" height="14" viewBox="0 0 14 14" fill="none" xmlns="http://www.w3.org/2000/svg">
<g id="lightbulb">
<path id="Vector" fill-rule="evenodd" clip-rule="evenodd" d="M6.99999 1.10526C4.86352 1.10526 3.13157 2.83721 3.13157 4.97368C3.13157 6.27194 3.77057 7.42096 4.75366 8.1235C5.08857 8.36283 5.3421 8.75896 5.3421 9.22828V10.5C5.3421 10.6017 5.42457 10.6842 5.52631 10.6842H8.47367C8.57541 10.6842 8.65789 10.6017 8.65789 10.5V9.22828C8.65789 8.75896 8.91141 8.36283 9.24632 8.1235C10.2294 7.42096 10.8684 6.27194 10.8684 4.97368C10.8684 2.83721 9.13646 1.10526 6.99999 1.10526ZM2.02631 4.97368C2.02631 2.22679 4.2531 0 6.99999 0C9.74688 0 11.9737 2.22679 11.9737 4.97368C11.9737 6.64386 11.1499 8.12164 9.88895 9.02274C9.79586 9.08927 9.76315 9.17155 9.76315 9.22828V10.5C9.76315 11.2122 9.18583 11.7895 8.47367 11.7895H5.52631C4.81415 11.7895 4.23683 11.2122 4.23683 10.5V9.22828C4.23683 9.17155 4.20412 9.08927 4.11103 9.02274C2.85008 8.12164 2.02631 6.64386 2.02631 4.97368ZM4.23683 13.4474C4.23683 13.1422 4.48425 12.8947 4.78946 12.8947H9.21052C9.51573 12.8947 9.76315 13.1422 9.76315 13.4474C9.76315 13.7526 9.51573 14 9.21052 14H4.78946C4.48425 14 4.23683 13.7526 4.23683 13.4474Z" fill="black"/>
</g>
</svg>

<svg xmlns="http://www.w3.org/2000/svg" fill="none" viewBox="0 0 14 14"><path fill="#000" fill-rule="evenodd" d="M7 1.105a3.868 3.868 0 0 0-2.246 7.019c.335.239.588.635.588 1.104V10.5c0 .102.083.184.184.184h2.948a.184.184 0 0 0 .184-.184V9.228c0-.469.253-.865.588-1.104A3.868 3.868 0 0 0 7 1.106M2.026 4.974A4.974 4.974 0 1 1 9.89 9.023c-.093.066-.126.149-.126.205V10.5a1.29 1.29 0 0 1-1.29 1.29H5.527a1.29 1.29 0 0 1-1.29-1.29V9.228c0-.056-.032-.139-.125-.205a4.97 4.97 0 0 1-2.085-4.05m2.21 8.473c0-.305.248-.552.553-.552h4.422a.553.553 0 0 1 0 1.105H4.789a.553.553 0 0 1-.552-.553" clip-rule="evenodd"/></svg>
